X:412
T:Reel 412
M:4/4
K:Gmin
L:1/8
dc|:BGGF D2GF|B,FDC D2GA|BGGB Bcdc|BGAF G2=EF:|G2GF GABG|AFcF ABcA|BcBA Bcdc|BGAF G2DC|FFGA BcdB|ccfc AFF2|BAGA Bcdc|BGAF G2|ga|bag=e f2ga|bgag fdcf|dggf g2ga|bagf gfdc|BABc dedc|Bcde f2ef|gefe dcdc|BGAF G2|
